X:1
T: A Ha'porth of Tea
C:
R:Reel
Q: 232
K:D
M:4/4
L:1/8
|:d1/2c1/2|BA ((3Bcd) A2 FA|dB cA BF F2|BA ((3Bcd) A2 Af|af eg fd dc|
BA ((3Bcd) A2 FA|dB cA BF F2|BA ((3Bcd) A2 Af|af eg fd de|
fd dA df ag|fd dA ((3Bcd) eg|fd dA de fg|af eg fd df|
fd dA df ag|fd dA ((3Bcd) eg|f2 fd g2 fg|af eg fd d:|
